packages/tokens/icons/coveoCoveo/size16Px.svg

<svg viewBox="0 0 16 16" fill="none" xmlns="http://www.w3.org/2000/svg" width="1em" height="1em"><path d="M10.1906 7.44C10.1906 6.9 9.92059 6.45 9.62059 6.18C9.32059 5.91 8.87059 5.658 8.06059 5.658C6.86059 5.658 5.81059 6.54 5.81059 7.83C5.81059 9.12 6.76459 9.978 7.97059 9.978C8.87059 9.978 9.26059 9.78 9.56059 9.63L9.38059 9.24C9.02059 9.39 8.69059 9.51 8.09059 9.51C7.04059 9.51 6.38059 8.85 6.38059 7.83C6.38059 6.81 7.10059 6.12 8.09059 6.12C9.08059 6.12 9.65059 6.66 9.65059 7.5C9.65059 8.16 9.32059 8.478 9.11059 8.478C8.90059 8.478 8.92459 8.28 8.96059 8.1L9.23059 6.78H8.63059L8.60659 6.9C8.59459 6.888 8.40859 6.69 7.97059 6.69C7.25059 6.69 6.80059 7.29 6.80059 8.01C6.80059 8.73 7.25059 9 7.67059 9C8.09059 9 8.33059 8.658 8.33059 8.658C8.39059 8.88 8.60059 9 8.90059 9C9.20059 9 9.53059 8.862 9.77059 8.628C10.0106 8.382 10.1906 7.98 10.1906 7.44ZM8.51059 7.35L8.39059 7.95C8.33659 8.208 8.21059 8.448 7.88059 8.448C7.55059 8.448 7.46059 8.19 7.46059 7.95C7.46059 7.56 7.66459 7.2 8.09059 7.2C8.33059 7.2 8.48059 7.32 8.51059 7.35Z" fill="currentColor"/><path d="M15.3211 9.825L15.0061 9.2925C14.6686 9.66 14.1436 9.9225 13.4611 9.9225C12.3511 9.9225 11.5336 9.12 11.5336 7.905C11.5336 6.69 12.3436 5.8875 13.4611 5.8875C14.1811 5.8875 14.7586 6.2625 14.9611 6.5175L15.2686 5.9325C14.9836 5.655 14.3986 5.25 13.4311 5.25C11.9461 5.25 10.7836 6.3075 10.7836 7.92C10.7836 9.5325 11.9161 10.59 13.4236 10.59C14.4061 10.59 14.9986 10.185 15.3211 9.825Z" fill="currentColor"/><path d="M5.3211 9.825L5.0061 9.2925C4.6686 9.66 4.1436 9.9225 3.4611 9.9225C2.3511 9.9225 1.5336 9.12 1.5336 7.905C1.5336 6.69 2.3436 5.8875 3.4611 5.8875C4.1811 5.8875 4.7586 6.2625 4.9611 6.5175L5.2686 5.9325C4.9836 5.655 4.3986 5.25 3.4311 5.25C1.9461 5.25 0.783604 6.3075 0.783604 7.92C0.783604 9.5325 1.9161 10.59 3.4236 10.59C4.4061 10.59 4.9986 10.185 5.3211 9.825Z" fill="currentColor"/></svg>

<svg xmlns="http://www.w3.org/2000/svg" fill="none" viewBox="0 0 16 16" width="1em" height="1em"><path fill="currentColor" d="M10.19 7.44c0-.54-.27-.99-.57-1.26-.3-.27-.75-.522-1.56-.522-1.2 0-2.25.882-2.25 2.172s.955 2.148 2.16 2.148c.9 0 1.29-.198 1.59-.348l-.18-.39c-.36.15-.69.27-1.29.27-1.05 0-1.71-.66-1.71-1.68s.72-1.71 1.71-1.71 1.56.54 1.56 1.38c0 .66-.33.978-.54.978-.21 0-.185-.198-.15-.378l.27-1.32h-.6l-.023.12c-.012-.012-.198-.21-.636-.21-.72 0-1.17.6-1.17 1.32 0 .72.45.99.87.99s.66-.342.66-.342c.06.222.27.342.57.342.3 0 .63-.138.87-.372.24-.246.42-.648.42-1.188Zm-1.68-.09-.12.6c-.053.258-.18.498-.51.498s-.42-.258-.42-.498c0-.39.205-.75.63-.75.24 0 .39.12.42.15Zm6.811 2.475-.315-.532c-.337.367-.862.63-1.545.63-1.11 0-1.927-.803-1.927-2.018 0-1.215.81-2.018 1.927-2.018.72 0 1.298.376 1.5.63l.308-.585c-.285-.277-.87-.682-1.838-.682-1.485 0-2.647 1.058-2.647 2.67 0 1.613 1.132 2.67 2.64 2.67.982 0 1.575-.405 1.897-.765Zm-10 0-.315-.532c-.337.367-.862.63-1.545.63-1.11 0-1.927-.803-1.927-2.018 0-1.215.81-2.018 1.927-2.018.72 0 1.298.376 1.5.63l.308-.585c-.285-.277-.87-.682-1.838-.682C1.946 5.25.784 6.308.784 7.92c0 1.613 1.132 2.67 2.64 2.67.982 0 1.575-.405 1.897-.765Z"/></svg>
